!!!OTL: Fruehlingseinzug.
!!!OTL-incipit:DIE FENSTER AUF DIE HERZEN AUF
!!!COM: G. W. Fink
!!!ARE: Europa, Mitteleuropa, Deutschland
!!!SCT: F0248
!!!TXL: @@DE
!!!YEM: Copyright 1995, estate of Helmut Schaffrath.
**kern	**text
*ICvox	*
*clefG2	*
*M3/4	*
*k[b-e-]	*
*B-:	*
!LO:TX:a:t=Munter.	!
{8cc	1._Die
=1	=1
8.dd	Fenſter
16cc	.
8b-'	auf,
8cc'	die
8dd'	Herʒen
8ee-'	.
=2	=2
2ff	auf!
8r}	.
{8ff	ge-
=3	=3
8ee-	-ſchwinde,
16ee-	.
16ee-	ge-
8ee-	-ſchwinde,
16ee-	.
16ee-	geſchwinde,
8ee-	.
16ee-	.
16ee-	ge-
=4	=4
8dd	-ſchwinde.
8dd	.
4r	.
8r}	.
{8dd	Der
=5	=5
8.cc	al-
16b-/	-te
8a	Win-
8b-	-ter
8cc	will
8dd	hin-
=6	=6
4.cc^}	-aus,
{8cc	er
8cc	trip-
8cc	-pelt
=7	=7
8.dd	ängſtlich
16dd	.
8dd	durch
16ffqq	.
8ee-	das
8dd}	Haus,
{8dd	er
=8	=8
4.een^	win-
8dd	-det
8ee	bang
8dd	ſich
=9	=9
8.een^	in
16ee	der
8ee}	Bruſt,
{8ee	und
8ee	kramt
8ee	ʒu-
=10	=10
8.ff	-ſammen
16ee-X	.
8dd	ſei-
8cc	-nen
8b-	Wuſt,
16r}	.
{16b-	ge-
=11	=11
8cc	-ſchwinde,
16cc	.
16cc	ge-
8cc	-ſchwinde,
16cc	.
16cc	ge-
8cc	-ſchwinde,
16b-	.
16cc	ge-
=12	=12
8dd'	-ſchwin-
8dd'	-de,
4r	.
8r}	.
{8cc	ge-
=13	=13
8dd	-ſchwin-
8dd	-de!
4r	.
8r}	.
==	==
!!!AGN: Jugend - Lied, Jahreszeiten, Fruehling
!!!ONB: ESAC (Essen Associative Code) Database: FINK
!!!AMT: simple triple
!!!AIN: vox
!!!EED: Helmut Schaffrath
!!!EEV: 1.0
!!!GTL: Jugendlieder
!!Text: W. Mueller
!!!source: Musikalischer Hausschatz der Deutschen. Eine Sammlung von über 1000 Liedern und Gesängen mit Singstimmen und Klavierbegleitung. Leipzig, Litterarisches Verlags-Haus.
!!!page: 148
!!!URL-scan: https://www.digitale-sammlungen.de/en/view/bsb11144622?page=146,147
!!!ENC: Anna Maria Matuszewska
!!!EEV: 2024/07/29
*-	*-
